assets/icons/qvision/sort_by_alpha.svg

<svg width="24" height="24" viewBox="0 0 24 24" fill="none" xmlns="http://www.w3.org/2000/svg">
<g clip-path="url(#clip0_147_1656)">
<path d="M14.94 4.66H10.22L12.58 2.3L14.94 4.66ZM10.25 19.37H14.91L12.58 21.7L10.25 19.37ZM6.09998 6.27L1.59998 17.73H3.43998L4.35998 15.28H9.46998L10.39 17.73H12.23L7.73998 6.27H6.09998ZM4.96998 13.64L6.90998 8.46L8.84998 13.64H4.96998ZM15.73 16.14H21.85V17.73H13.32V16.44L19.24 7.88H13.36V6.28H21.66V7.54L15.73 16.14Z" fill="#323232"/>
</g>
<defs>
<clipPath id="clip0_147_1656">
<rect width="24" height="24" fill="white"/>
</clipPath>
</defs>
</svg>

<svg xmlns="http://www.w3.org/2000/svg" height="24" viewBox="0 0 24 24" width="24"><path d="M0 0h24v24H0V0zm0 0h24v24H0V0zm.75.75h22.5v22.5H.75z" fill="none"/><path d="M14.94 4.66h-4.72l2.36-2.36zm-4.69 14.71h4.66l-2.33 2.33zM6.1 6.27L1.6 17.73h1.84l.92-2.45h5.11l.92 2.45h1.84L7.74 6.27H6.1zm-1.13 7.37l1.94-5.18 1.94 5.18H4.97zm10.76 2.5h6.12v1.59h-8.53v-1.29l5.92-8.56h-5.88v-1.6h8.3v1.26l-5.93 8.6z"/></svg>
